X: 16
P: Longways for as many as will
M: C|
L: 1/8
K: G
[|\
d3 c B2 AG | A2 D2 G4 | de dc BA BG | A2 D2 G2 ][ \
g3 f e2 d2 | ed c2 B3 c | d2 ed c2 B2 | A4 G4 |]

